; HEADER_BLOCK_START
; generated by OrcaSlicer 2.3.1 on 2025-12-01 at 17:36:01
; total layer number: 79
; filament_density: 1.24
; filament_diameter: 1.75
; max_z_height: 15.80
; HEADER_BLOCK_END

; THUMBNAIL_BLOCK_START

;
; THUMBNAIL_BLOCK_END

; THUMBNAIL_BLOCK_START

;
; THUMBNAIL_BLOCK_END

; external perimeters extrusion width = 0.42mm
; perimeters extrusion width = 0.45mm
; infill extrusion width = 0.45mm
; solid infill extrusion width = 0.42mm
; top infill extrusion width = 0.42mm
; support material extrusion width = 0.40mm
; first layer extrusion width = 0.50mm

; external perimeters extrusion width = 0.42mm
; perimeters extrusion width = 0.45mm
; infill extrusion width = 0.45mm
; solid infill extrusion width = 0.42mm
; top infill extrusion width = 0.42mm
; support material extrusion width = 0.40mm
; first layer extrusion width = 0.50mm

; EXECUTABLE_BLOCK_START
EXCLUDE_OBJECT_DEFINE NAME=Деталь2.stl_id_0_copy_0 CENTER=130,130 POLYGON=[[124.681,117.882],[124.891,117.039],[135.319,117.039],[135.319,142.961],[124.891,142.961],[124.681,142.118],[124.681,117.882]]
EXCLUDE_OBJECT_DEFINE NAME=Деталь2.stl_id_1_copy_0 CENTER=130,130 POLYGON=[[124.523,117.039],[135.477,117.039],[135.477,142.961],[124.523,142.961],[124.523,117.039]]
M73 P0 R23
;TYPE:Custom
M140 S0
M104 S0 
START_PRINT EXTRUDER_TEMP=220 BED_TEMP=55
T0
M109 S220
M204 S2000
G1 Z3 F600
M83
G1 Y150 F12000
G1 X0 F12000
G1 Z0.2 F600
G1 X0 Y150 F6000
G1 X0 Y0 E15 F6000
G1 X150 Y0 E15 F6000
G92 E0
G1 Z1 F600
G90
G21
M83 ; use relative distances for extrusion
; filament start gcode

M104 S220

M106 S0
;LAYER_CHANGE
;Z:0.2
;HEIGHT:0.2
;BEFORE_LAYER_CHANGE
;0.2
G92 E0

G1 E-.8 F2400
;_SET_FAN_SPEED_CHANGING_LAYER
SET_VELOCITY_LIMIT ACCEL=2000 ACCEL_TO_DECEL=1000
SET_VELOCITY_LIMIT SQUARE_CORNER_VELOCITY=8
EXCLUDE_OBJECT_START NAME=Деталь2.stl_id_0_copy_0
G1 X123.906 Y111.96 F30000
G1 Z.6
G1 Z.2
G1 E.8 F2400
;TYPE:Support
;WIDTH:0.5
G1 F3600
G1 X123.906 Y113.977 E.07512
G1 X123.936 Y114.25 E.01023
G1 X124.201 Y115.044 E.03119
G1 X124.413 Y115.407 E.01566
G1 X124.413 Y111.367 E.15046
G1 X124.596 Y111.047 E.01371
G1 X124.921 Y110.682 E.01823
G1 X124.921 Y116.092 E.2015
G1 X125 Y116.178 E.00434
G1 X125.429 Y116.178 E.01599
G1 X125.429 Y110.218 E.22198
G1 X125.837 Y109.919 E.01883
G1 X125.937 Y109.874 E.00409
G1 X125.937 Y116.178 E.23478
G1 X126.445 Y116.178 E.01892
G1 X126.445 Y109.647 E.24326
G1 X126.607 Y109.574 E.00662
G1 X126.953 Y109.5 E.01317
G1 X126.953 Y116.178 E.24873
G1 X127.461 Y116.178 E.01892
G1 X127.461 Y109.397 E.25256
G1 X127.969 Y109.397 E.01892
G1 X127.969 Y116.178 E.25256
G1 X128.476 Y116.178 E.01892
G1 X128.476 Y109.44 E.25098
G1 X128.984 Y109.548 E.01934
G1 X128.984 Y116.178 E.24693
G1 X129.492 Y116.178 E.01892
G1 X129.492 Y109.748 E.23949
G1 X129.873 Y109.918 E.01555
G1 X130 Y110.011 E.00586
G1 X130 Y116.178 E.22968
G1 X130.508 Y116.178 E.01892
G1 X130.508 Y110.383 E.21583
G1 X131.016 Y110.935 E.02792
G1 X131.016 Y116.056 E.19075
G1 X131.263 Y116.178 E.01026
G1 X131.524 Y116.178 E.00972
G1 X131.524 Y111.763 E.16445
G1 X131.787 Y112.58 E.03197
G1 X131.869 Y113.416 E.0313
G1 X131.766 Y114.333 E.0344
G1 X132.031 Y114.45 E.0108
G1 X132.031 Y116.178 E.06436
G1 X132.539 Y116.178 E.01892
G1 X132.539 Y114.673 E.05605
G1 X132.658 Y114.725 E.00482
G1 X133.047 Y114.277 E.02212
G1 X133.047 Y117.524 E.12095
G1 X141.173 Y119.809 F30000
G1 F3600
G1 X141.173 Y116.276 E.13158
G1 X141.103 Y116.022 E.00983
G1 X140.719 Y115.227 E.03289
G1 X140.665 Y115.153 E.00338
G1 X140.665 Y124.081 E.33254
G1 X140.665 Y125.365 F30000
G1 F3600
G1 X140.665 Y128.256 E.10769
G1 X140.488 Y128.849 E.02306
G1 X140.157 Y129.476 E.02638
G1 X140.484 Y130.097 E.02614
G1 X140.665 Y130.703 E.02356
G1 X140.665 Y133.57 E.10679
G1 X141.173 Y144.011 F30000
G1 F3600
G1 X141.173 Y140.864 E.11721
G1 X141.034 Y140.361 E.01942
G1 X140.741 Y139.757 E.02502
G1 X141.14 Y138.932 E.03414
G1 X141.173 Y138.812 E.00462
G1 X141.173 Y135.589 E.12003
G1 X141.141 Y135.473 E.00449
G1 X140.758 Y134.678 E.03286
G1 X140.665 Y134.552 E.00585
G1 X140.665 Y144.588 E.37381
G1 X140.157 Y145.295 E.03242
G1 X140.157 Y114.474 E1.14795
G1 X139.649 Y113.99 E.02612
G1 X139.649 Y145.79 E1.1844
G1 X139.486 Y145.945 E.00838
G1 X139.142 Y146.17 E.01535
G1 X139.142 Y113.63 E1.21199
G1 X138.822 Y113.42 E.01425
G1 X138.634 Y113.341 E.00761
G1 X138.634 Y146.476 E1.23417
G1 X138.126 Y146.691 E.02053
G1 X138.126 Y113.125 E1.25018
G1 X138.01 Y113.076 E.0047
G1 X137.618 Y112.988 E.01496
G1 X137.618 Y146.842 E1.26093
G1 X137.11 Y146.955 E.01938
G1 X137.11 Y112.881 E1.26914
G1 X136.602 Y112.86 E.01893
G1 X136.602 Y146.982 E1.27091
G1 X136.195 Y146.998 E.01519
G1 X136.094 Y146.984 E.00377
G1 X136.094 Y112.871 E1.2706
G1 X135.587 Y112.941 E.0191
M73 P1 R23
G1 X135.587 Y146.913 E1.26531
G1 X135.323 Y146.876 E.0099
G1 X135.079 Y146.795 E.0096
G1 X135.079 Y113.072 E1.25604
G1 X134.571 Y113.239 E.01991
G1 X134.571 Y146.627 E1.24357
G1 X134.489 Y146.6 E.00322
G1 X134.063 Y146.368 E.01805
G1 X134.063 Y113.513 E1.22374
G1 X133.789 Y113.662 E.01161
G1 X133.555 Y113.849 E.01117
G1 X133.555 Y146.05 E1.19935
G1 X133.047 Y145.641 E.02428
G1 X133.047 Y143.399 E.08351
G1 X132.624 Y143.822 E.02228
G1 X132.539 Y143.822 E.00317
G1 X132.539 Y145.093 E.04735
G1 X132.031 Y145.317 E.02067
G1 X132.031 Y143.822 E.05568
G1 X131.524 Y143.822 E.01892
G1 X131.524 Y147.823 E.149
G1 X131.448 Y148.058 E.0092
G1 X131.016 Y148.788 E.0316
G1 X131.016 Y143.941 E.18053
G1 X130.858 Y144.021 E.00658
G1 X130.67 Y143.822 E.01019
G1 X130.508 Y143.822 E.00605
G1 X130.508 Y149.345 E.2057
G1 X130 Y149.716 E.02344
G1 X130 Y143.822 E.21954
G1 X129.492 Y143.822 E.01892
G1 X129.492 Y149.983 E.22949
G1 X129.064 Y150.167 E.01734
G1 X128.984 Y150.182 E.00302
G1 X128.984 Y143.822 E.23688
G1 X128.476 Y143.822 E.01892
G1 X128.476 Y150.28 E.24053
G1 X128.259 Y150.322 E.00825
G1 X127.969 Y150.315 E.01082
G1 X127.969 Y143.822 E.24184
G1 X127.461 Y143.822 E.01892
G1 X127.461 Y150.303 E.2414
G1 X126.953 Y150.185 E.01942
G1 X126.953 Y143.822 E.237
G1 X126.445 Y143.822 E.01892
G1 X126.445 Y150.015 E.23067
G1 X125.937 Y149.768 E.02103
G1 X125.937 Y143.822 E.22148
G1 X125.429 Y143.822 E.01892
G1 X125.429 Y149.38 E.20702
G1 X125.271 Y149.255 E.00751
G1 X124.921 Y148.855 E.01979
G1 X124.921 Y144.145 E.17543
G1 X124.718 Y144.395 E.012
G1 X124.413 Y144.991 E.02493
G1 X124.413 Y148.461 E.12923
G1 E-.56 F2400
;WIPE_START
G1 F3600
G1 X124.413 Y146.461 E-.24
;WIPE_END
G1 X125.291 Y138.879 Z.6 F30000
G1 X128.741 Y109.076 Z.6
G1 Z.2
G1 E.8 F2400
G1 F3600
G1 X129.231 Y109.18 E.01866
G1 X130.081 Y109.561 E.03469
G1 X130.832 Y110.111 E.03466
G1 X131.451 Y110.804 E.03464
G1 X131.911 Y111.612 E.03461
G1 X132.192 Y112.496 E.03457
G1 X132.283 Y113.419 E.03452
G1 X132.209 Y114.078 E.02473
G1 X132.546 Y114.226 E.01371
G1 X132.817 Y113.914 E.01542
G1 X133.56 Y113.318 E.03548
G1 X134.398 Y112.863 E.03551
G1 X135.304 Y112.565 E.03553
G1 X136.251 Y112.434 E.03559
G1 X137.203 Y112.473 E.03551
G1 X138.136 Y112.683 E.03562
G1 X139.016 Y113.056 E.03561
G1 X139.816 Y113.581 E.03563
G1 X140.509 Y114.241 E.03564
G1 X141.073 Y115.014 E.03565
G1 X141.489 Y115.876 E.03566
G1 X141.745 Y116.799 E.03566
G1 X141.83 Y117.753 E.03566
G1 X141.744 Y118.706 E.03566
G1 X141.488 Y119.629 E.03566
G1 X141.166 Y120.296 E.02761
G1 X141.348 Y120.924 E.02434
G1 X141.436 Y121.865 E.03522
G1 X141.347 Y122.807 E.03522
G1 X141.083 Y123.715 E.03523
G1 X140.653 Y124.558 E.03525
G1 X140.545 Y124.697 E.00655
G1 X140.869 Y125.31 E.02581
G1 X141.141 Y126.216 E.03525
G1 X141.233 Y127.158 E.03523
G1 X141.142 Y128.099 E.03523
G1 X140.87 Y129.006 E.03524
G1 X140.622 Y129.476 E.0198
G1 X140.867 Y129.94 E.01956
G1 X141.138 Y130.847 E.03523
G1 X141.228 Y131.788 E.03523
G1 X141.136 Y132.73 E.03523
G1 X140.863 Y133.636 E.03525
G1 X140.713 Y133.919 E.01192
G1 X141.112 Y134.466 E.02523
G1 X141.528 Y135.328 E.03563
G1 X141.782 Y136.25 E.03563
G1 X141.868 Y137.203 E.03563
G1 X141.782 Y138.155 E.03563
G1 X141.526 Y139.077 E.03562
G1 X141.198 Y139.757 E.02811
G1 X141.42 Y140.216 E.01899
G1 X141.676 Y141.14 E.03571
G1 X141.762 Y142.094 E.03571
G1 X141.676 Y143.049 E.03571
G1 X141.42 Y143.973 E.0357
G1 X141.002 Y144.836 E.0357
G1 X140.437 Y145.609 E.03568
G1 X139.743 Y146.269 E.03567
G1 X138.942 Y146.793 E.03565
G1 X138.061 Y147.165 E.03562
G1 X137.128 Y147.373 E.03559
G1 X136.174 Y147.411 E.03556
G1 X135.229 Y147.278 E.03553
G1 X134.324 Y146.979 E.0355
G1 X133.488 Y146.524 E.03547
G1 X132.747 Y145.928 E.03543
G1 X132.448 Y145.583 E.01699
G1 X132.11 Y145.732 E.01374
G1 X132.194 Y146.46 E.02729
G1 X132.105 Y147.363 E.03382
G1 X131.825 Y148.226 E.03379
G1 X131.37 Y149.01 E.03378
G1 X130.767 Y149.671 E.03333
G1 X130.006 Y150.211 E.03474
G1 X129.185 Y150.562 E.03325
G1 X128.293 Y150.734 E.03383
G1 X127.384 Y150.713 E.03387
G1 X126.499 Y150.499 E.03393
G1 X125.678 Y150.1 E.034
G1 X124.988 Y149.556 E.0327
G1 X124.647 Y149.175 E.01907
G1 X124.383 Y148.822 E.01639
G1 X124.155 Y148.423 E.01712
G1 X123.968 Y148.009 E.01694
G1 X123.833 Y147.586 E.01652
G1 X123.737 Y147.125 E.01757
G1 X123.694 Y146.701 E.01585
G1 X123.699 Y146.211 E.01825
G1 X123.747 Y145.778 E.01625
G1 X123.965 Y144.965 E.03135
G1 X124.371 Y144.169 E.03328
G1 X124.936 Y143.475 E.03334
G1 X125.016 Y143.411 E.00381
G1 X130.847 Y143.411 E.21719
G1 X130.946 Y143.515 E.00536
G1 X131.153 Y143.411 E.00864
G1 X132.454 Y143.411 E.04844
G1 X132.718 Y143.147 E.01389
G1 X132.718 Y142.515 E.02355
G1 X132.928 Y142.304 E.0111
G1 X132.928 Y117.696 E.91657
G1 X132.718 Y117.485 E.0111
G1 X132.718 Y116.853 E.02355
G1 X132.454 Y116.589 E.01389
G1 X131.167 Y116.589 E.04795
G1 X130.978 Y116.496 E.00782
G1 X130.894 Y116.589 E.00469
G1 X124.818 Y116.589 E.22629
G1 X124.291 Y116.01 E.02917
G1 X123.824 Y115.215 E.03435
G1 X123.532 Y114.339 E.0344
G1 X123.429 Y113.419 E.03446
G1 X123.519 Y112.497 E.03451
G1 X123.8 Y111.613 E.03456
G1 X124.26 Y110.806 E.0346
G1 X124.878 Y110.112 E.03463
G1 X125.629 Y109.562 E.03466
G1 X126.478 Y109.181 E.03468
G1 X127.389 Y108.986 E.03469
G1 X128.321 Y108.986 E.0347
G1 X128.674 Y109.061 E.01346
G1 E-.56 F2400
;WIPE_START
G1 F3600
G1 X128.321 Y108.986 E-.04335
G1 X127.389 Y108.986 E-.11181
G1 X126.698 Y109.134 E-.08484
;WIPE_END
G1 X123.223 Y115.929 Z.6 F30000
G1 X121.222 Y119.843 Z.6
G1 Z.2
G1 E.8 F2400
G1 F3600
G1 X121.601 Y119.861 E.01413
G1 X122.531 Y120.076 E.03556
G1 X123.406 Y120.454 E.0355
G1 X124.2 Y120.981 E.03549
G1 X124.441 Y121.212 E.01247
G1 X124.441 Y129.057 E.2922
G1 X124.201 Y129.289 E.01242
G1 X123.407 Y129.816 E.0355
G1 X122.531 Y130.193 E.03552
G1 X121.602 Y130.408 E.03554
G1 X120.648 Y130.454 E.03556
G1 X119.702 Y130.329 E.03557
G1 X118.792 Y130.036 E.03559
G1 X117.949 Y129.585 E.03561
G1 X117.2 Y128.99 E.03562
G1 X116.569 Y128.271 E.03563
G1 X116.077 Y127.45 E.03564
G1 X115.74 Y126.554 E.03565
G1 X115.569 Y125.613 E.03565
G1 X115.569 Y124.656 E.03565
G1 X115.741 Y123.714 E.03565
G1 X116.078 Y122.818 E.03564
G1 X116.57 Y121.998 E.03564
G1 X117.201 Y121.279 E.03563
G1 X117.95 Y120.684 E.03561
G1 X118.792 Y120.234 E.0356
G1 X119.702 Y119.941 E.03558
G1 X120.649 Y119.816 E.03558
G1 X121.153 Y119.84 E.0188
G1 X116.288 Y127.401 F30000
G1 F3600
G1 X116.288 Y123.429 E.14796
G1 X116.45 Y122.998 E.01714
G1 X116.795 Y122.421 E.02504
G1 X116.795 Y127.848 E.20213
G1 X116.903 Y128.028 E.00779
G1 X117.303 Y128.484 E.02262
G1 X117.303 Y121.785 E.24951
G1 X117.485 Y121.578 E.01029
G1 X117.811 Y121.319 E.01549
G1 X117.811 Y128.95 E.28423
G1 X118.176 Y129.24 E.01733
G1 X118.319 Y129.317 E.00606
G1 X118.319 Y120.953 E.3115
G1 X118.827 Y120.682 E.02145
G1 X118.827 Y129.588 E.33174
G1 X118.953 Y129.656 E.00534
G1 X119.335 Y129.779 E.01493
G1 X119.335 Y120.491 E.34592
G1 X119.843 Y120.337 E.01977
G1 X119.843 Y129.932 E.35738
G1 X120.351 Y130 E.01908
G1 X120.351 Y120.27 E.36239
G1 X120.666 Y120.228 E.01186
G1 X120.858 Y120.238 E.00717
G1 X120.858 Y130.032 E.36481
G1 X121.366 Y130.008 E.01894
G1 X121.366 Y120.262 E.36299
G1 X121.544 Y120.27 E.00663
G1 X121.874 Y120.347 E.01262
G1 X121.874 Y129.923 E.35668
G1 X122.382 Y129.806 E.01942
G1 X122.382 Y120.464 E.34793
G1 X122.402 Y120.469 E.00077
G1 X122.89 Y120.679 E.01979
G1 X122.89 Y129.591 E.33193
G1 X123.21 Y129.453 E.013
G1 X123.398 Y129.328 E.00838
G1 X123.398 Y120.942 E.31236
G1 X123.906 Y121.279 E.0227
G1 X123.906 Y129.238 E.29644
G1 E-.56 F2400
;WIPE_START
G1 F3600
G1 X123.906 Y127.238 E-.24
;WIPE_END
G1 X121.158 Y131.372 Z.6 F30000
G1 Z.2
G1 E.8 F2400
G1 F3600
G1 X121.539 Y131.39 E.0142
G1 X122.469 Y131.604 E.03556
G1 X123.346 Y131.981 E.03552
G1 X124.14 Y132.507 E.0355
G1 X124.441 Y132.796 E.01555
G1 X124.441 Y140.532 E.28812
G1 X124.141 Y140.82 E.01552
G1 X123.346 Y141.347 E.03551
G1 X122.47 Y141.724 E.03553
G1 X121.54 Y141.938 E.03554
G1 X120.587 Y141.983 E.03555
G1 X119.64 Y141.857 E.03557
G1 X118.731 Y141.564 E.03558
G1 X117.889 Y141.112 E.03559
G1 X117.141 Y140.518 E.0356
G1 X116.511 Y139.798 E.03561
G1 X116.019 Y138.978 E.03562
G1 X115.683 Y138.083 E.03562
G1 X115.512 Y137.142 E.03562
G1 X115.512 Y136.185 E.03562
G1 X115.683 Y135.244 E.03562
G1 X116.02 Y134.349 E.03562
G1 X116.511 Y133.529 E.03561
G1 X117.141 Y132.81 E.0356
G1 X117.889 Y132.216 E.03559
G1 X118.731 Y131.765 E.03558
G1 X119.64 Y131.471 E.03557
G1 X120.587 Y131.345 E.03557
G1 X121.09 Y131.369 E.01875
G1 X116.288 Y139.026 F30000
G1 F3600
G1 X116.288 Y134.806 E.15717
G1 X116.392 Y134.529 E.01102
G1 X116.795 Y133.855 E.02926
G1 X116.795 Y139.473 E.20926
G1 X116.844 Y139.555 E.00355
G1 X117.303 Y140.079 E.02594
G1 X117.303 Y133.249 E.25438
G1 X117.426 Y133.109 E.00694
G1 X117.811 Y132.803 E.01832
G1 X117.811 Y140.525 E.28762
G1 X118.116 Y140.767 E.01449
G1 X118.319 Y140.876 E.00859
G1 X118.319 Y132.452 E.31377
G1 X118.827 Y132.18 E.02146
M73 P2 R23
G1 X118.827 Y141.148 E.33403
G1 X119.335 Y141.326 E.02004
G1 X119.335 Y132.002 E.34729
G1 X119.731 Y131.874 E.01552
G1 X119.843 Y131.859 E.00418
G1 X119.843 Y141.469 E.35792
G1 X120.351 Y141.537 E.01908
G1 X120.351 Y131.792 E.36297
G1 X120.605 Y131.758 E.00955
G1 X120.858 Y131.77 E.00946
G1 X120.858 Y141.559 E.36459
G1 X121.366 Y141.535 E.01894
G1 X121.366 Y131.794 E.36281
G1 X121.483 Y131.799 E.00435
G1 X121.874 Y131.889 E.01495
G1 X121.874 Y141.439 E.3557
G1 X122.382 Y141.314 E.01948
G1 X122.382 Y132.015 E.34637
G1 X122.89 Y132.233 E.02059
G1 X122.89 Y141.096 E.33011
G1 X123.15 Y140.984 E.01053
G1 X123.398 Y140.82 E.01108
G1 X123.398 Y132.509 E.30954
G1 X123.906 Y132.853 E.02284
G1 X123.906 Y140.73 E.29339
G1 E-.56 F2400
;WIPE_START
G1 F3600
G1 X123.906 Y138.73 E-.24
;WIPE_END
G1 X129.492 Y136.913 Z.6 F30000
G1 Z.2
G1 E.8 F2400
G1 F3600
G1 X129.492 Y125.984 E.40706
G1 X129.466 Y125.905 E.00309
G1 X128.984 Y125.554 E.0222
G1 X128.984 Y137.027 E.42733
G1 X128.918 Y137.075 E.00304
G1 X128.476 Y137.075 E.01646
G1 X128.476 Y125.506 E.4309
G1 X128.241 Y125.506 E.00878
G1 X127.969 Y125.704 E.01253
G1 X127.969 Y136.878 E.41617
G1 X127.693 Y136.677 E.01271
G1 X127.461 Y135.963 E.02794
G1 X127.461 Y125.953 E.37287
G1 X129.761 Y125.61 F30000
G1 F3600
G1 X129.052 Y125.095 E.03264
G1 X128.107 Y125.095 E.03519
G1 X127.343 Y125.65 E.03519
G1 X127.027 Y126.62 E.03799
G1 X127.027 Y135.961 E.34791
G1 X127.343 Y136.931 E.03799
G1 X128.107 Y137.487 E.03519
G1 X129.052 Y137.487 E.03519
G1 X129.816 Y136.931 E.03519
G1 X130.132 Y135.961 E.03799
G1 X130.132 Y126.62 E.34791
G1 X129.816 Y125.65 E.03799
G1 E-.56 F2400
;WIPE_START
G1 F3600
G1 X130.132 Y126.62 E-.12238
G1 X130.132 Y127.6 E-.11762
;WIPE_END
G1 X131.352 Y135.135 Z.6 F30000
G1 X131.521 Y136.178 Z.6
G1 Z.2
G1 E.8 F2400
;TYPE:Inner wall
;WIDTH:0.610051
G1 F3600
G1 X131.545 Y136.302 E.00584
G1 X131.563 Y136.746 E.02051
;WIDTH:0.573367
G1 X131.581 Y137.189 E.01919
;WIDTH:0.536683
G1 X131.6 Y137.633 E.01786
;WIDTH:0.499999
G1 X131.6 Y141.517 E.14468
G1 X131.477 Y141.59 E.00532
G1 X131.389 Y141.925 E.01291
G1 X131.389 Y142.082 E.00586
G1 X125.77 Y142.082 E.20928
G1 X125.77 Y137.6 E.16696
G1 X125.751 Y136.269 E.04956
G1 X126.144 Y137.54 E.04956
G1 X126.393 Y137.883 E.01578
G1 X127.495 Y138.684 E.05076
G1 X127.76 Y138.801 E.0108
G1 X127.898 Y138.815 E.00516
G1 X129.355 Y138.815 E.05426
